svg/food/cupcake_line.svg

<?xml version="1.0" encoding="UTF-8"?>
<svg width="24px" height="24px" viewBox="0 0 24 24" version="1.1" xmlns="http://www.w3.org/2000/svg" xmlns:xlink="http://www.w3.org/1999/xlink">
    <title>cupcake_line</title>
    <g id="Icon" stroke="none" stroke-width="1" fill="none" fill-rule="evenodd">
        <g id="Food" transform="translate(-768.000000, 0.000000)">
            <g id="cupcake_line" transform="translate(768.000000, 0.000000)">
                <path d="M24,0 L24,24 L0,24 L0,0 L24,0 Z M12.5935,23.2578 L12.5819,23.2595 L12.5109,23.295 L12.4919,23.2987 L12.4767,23.295 L12.4057,23.2595 C12.3958,23.2564 12.387,23.259 12.3821,23.2649 L12.378,23.2758 L12.3609,23.7031 L12.3659,23.7235 L12.3769,23.7357 L12.4805,23.8097 L12.4953,23.8136 L12.5071,23.8097 L12.6107,23.7357 L12.6233,23.7197 L12.6267,23.7031 L12.6096,23.2758 C12.6076,23.2657 12.601,23.2593 12.5935,23.2578 Z M12.8584,23.1453 L12.8445,23.1473 L12.6598,23.2397 L12.6499,23.2499 L12.6472,23.2611 L12.6651,23.6906 L12.6699,23.7034 L12.6784,23.7105 L12.8793,23.8032 C12.8914,23.8069 12.9022,23.803 12.9078,23.7952 L12.9118,23.7812 L12.8777,23.1665 C12.8753,23.1546 12.8674,23.147 12.8584,23.1453 Z M12.143,23.1473 C12.1332,23.1424 12.1222,23.1453 12.1156,23.1526 L12.1099,23.1665 L12.0758,23.7812 C12.0751,23.7927 12.0828,23.8019 12.0926,23.8046 L12.1083,23.8032 L12.3092,23.7105 L12.3186,23.7024 L12.3225,23.6906 L12.3404,23.2611 L12.3372,23.2485 L12.3278,23.2397 L12.143,23.1473 Z" id="MingCute" fill-rule="nonzero"></path>
                <path d="M12,3 C14.6345,3 16.8708,4.69709 17.6782,7.05726 C19.5643,7.37938 21,9.02203 21,11 C21,12.0213 20.6172,12.9532 19.9874,13.6601 C19.9778667,13.7184333 19.9630444,13.7765444 19.9426963,13.8338407 L19.908,13.9191 L17.4442,19.2572 C16.9811389,20.2605778 16.0068867,20.923221 14.9142645,20.9937512 L14.7203,21 L9.27966,21 C8.17451833,21 7.16463071,20.3931 6.64274228,19.4306785 L6.55579,19.2572 L4.09204,13.9191 C4.05308,13.8346 4.02687,13.7476 4.01264,13.6601 C3.38275,12.9532 3,12.0213 3,11 C3,9.02203 4.43567,7.37938 6.3218,7.05726 C7.12925,4.69709 9.36551,3 12,3 Z M17,15 L7,15 C6.92271,15 6.95506813,15.1817813 7.05076313,15.4624312 L7.14721834,15.7252673 L7.14721834,15.7252673 L7.33589076,16.1849379 L7.33589076,16.1849379 L7.55790808,16.6882995 L7.55790808,16.6882995 L7.86799592,17.3597283 L7.86799592,17.3597283 L8.37171,18.4191 L8.37171,18.4191 C8.53516,18.7732 8.88961,19 9.27966,19 L14.7203,19 C15.1104,19 15.4648,18.7732 15.6283,18.4191 L16.2863486,17.0288084 L16.2863486,17.0288084 L16.51845,16.518075 L16.51845,16.518075 L16.6641111,16.1849379 L16.6641111,16.1849379 L16.7949519,15.871219 L16.7949519,15.871219 L16.904491,15.5885213 C17.0334612,15.2374286 17.0883429,15 17,15 Z M12,5 C10.0655,5 8.44979,6.37422 8.07977,8.20023 C7.98284,8.67854 7.55482,9.01702 7.06706,9.0011 L7,9 L7,9 C5.89543,9 5,9.89543 5,11 C5,12.0543909 5.81587733,12.9181678 6.85073759,12.9945144 L7,13 L17,13 C18.1046,13 19,12.1046 19,11 C19,9.94563773 18.18415,9.08183483 17.1492661,9.00548573 L17,9 C16.9776,9 16.9552,9.00037 16.9329,9.0011 C16.4452,9.01702 16.0172,8.67854 15.9202,8.20023 C15.5502,6.37422 13.9345,5 12,5 Z" id="形状" fill="#09244B"></path>
            </g>
        </g>
    </g>
</svg>

<svg xmlns="http://www.w3.org/2000/svg" width="24" height="24"><g fill="none" fill-rule="evenodd"><path d="M24 0v24H0V0h24ZM12.594 23.258l-.012.002-.071.035-.02.004-.014-.004-.071-.036c-.01-.003-.019 0-.024.006l-.004.01-.017.428.005.02.01.013.104.074.015.004.012-.004.104-.074.012-.016.004-.017-.017-.427c-.002-.01-.009-.017-.016-.018Zm.264-.113-.014.002-.184.093-.01.01-.003.011.018.43.005.012.008.008.201.092c.012.004.023 0 .029-.008l.004-.014-.034-.614c-.003-.012-.01-.02-.02-.022Zm-.715.002a.023.023 0 0 0-.027.006l-.006.014-.034.614c0 .012.007.02.017.024l.015-.002.201-.093.01-.008.003-.011.018-.43-.003-.012-.01-.01-.184-.092Z"/><path fill="#09244B" d="M12 3a6.002 6.002 0 0 1 5.678 4.057 4.001 4.001 0 0 1 2.31 6.603c-.01.058-.025.117-.045.174l-.035.085-2.464 5.338a3 3 0 0 1-2.53 1.737L14.72 21H9.28a3 3 0 0 1-2.637-1.57l-.087-.173-2.464-5.338a1.002 1.002 0 0 1-.08-.259 4.001 4.001 0 0 1 2.31-6.603A6.002 6.002 0 0 1 12 3Zm5 12H7c-.077 0-.045.182.05.462l.097.263.189.46.222.503.31.672.504 1.06a1 1 0 0 0 .908.58h5.44a1 1 0 0 0 .908-.58l.658-1.391.232-.51.146-.334.131-.314.11-.282c.128-.352.183-.589.095-.589ZM12 5a4.002 4.002 0 0 0-3.92 3.2 1 1 0 0 1-1.013.801L7 9a2 2 0 0 0-.15 3.995L7 13h10a2 2 0 0 0 .15-3.995L17 9l-.067.001a1 1 0 0 1-1.013-.8A4.002 4.002 0 0 0 12 5Z"/></g></svg>
